X:2515
T:Polska från Uppland
T:Svenska Folkdansar H3 nr 27
O:Uppland
B:Traditioner av Svenska Folkdansar Häfte 3, nr 27
R:Polska
Z:Nils L
M:3/4
L:1/16
%%MIDI deltaloudness 0
K:Bb
B2b2 b2fd B2cd | (e2fg) !>(!A4 B4!>)! | Bcde f2d2 B2d2 | e2fg A4 B4 |
F2A2 {B/}A2GA {B/}A2GA | F2B2 {c/}B2AB {c/}B2AB | B2df g2ec f2dB | (fecA) !fine!B8 ::
A2Bc B2cd c4 | d2=ef e2fg f4 | c2a2 g2b2 a2f2 | agf=e (e4 f4) |
Bcde f2d2 B4 | (B2g2) f2>d2 B4 | Bcde f2d2 B4 | (B2g2) f2>d2 B4 !D.C.! :| 
(:musicend:)
(:music:)
